public/assets/icons/eye.svg

<svg fill="none" height="24" viewBox="0 0 24 24" width="24" xmlns="http://www.w3.org/2000/svg"><path d="m1.18091 12c.94-5.12 5.427-9 10.81899-9 5.392 0 9.878 3.88 10.819 9-.94 5.12-5.427 9-10.819 9-5.39199 0-9.87799-3.88-10.81899-9zm10.81899 5c1.3261 0 2.5979-.5268 3.5355-1.4645.9377-.9376 1.4645-2.2094 1.4645-3.5355s-.5268-2.59785-1.4645-3.53553c-.9376-.93769-2.2094-1.46447-3.5355-1.46447s-2.59784.52678-3.53553 1.46447c-.93768.93768-1.46446 2.20943-1.46446 3.53553s.52678 2.5979 1.46446 3.5355c.93769.9377 2.20943 1.4645 3.53553 1.4645zm0-2c-.7956 0-1.5587-.3161-2.12131-.8787s-.87868-1.3257-.87868-2.1213.31607-1.5587.87868-2.12132c.56261-.56261 1.32571-.87868 2.12131-.87868.7957 0 1.5587.31607 2.1213.87868.5626.56262.8787 1.32572.8787 2.12132s-.3161 1.5587-.8787 2.1213-1.3256.8787-2.1213.8787z" fill="#2d3748"/></svg>

<svg width="24" height="24" viewBox="0 0 24 24" fill="none" xmlns="http://www.w3.org/2000/svg">
<path d="M1.18091 12C2.12091 6.88 6.60791 3 11.9999 3C17.3919 3 21.8779 6.88 22.8189 12C21.8789 17.12 17.3919 21 11.9999 21C6.60791 21 2.12191 17.12 1.18091 12ZM11.9999 17C13.326 17 14.5978 16.4732 15.5354 15.5355C16.4731 14.5979 16.9999 13.3261 16.9999 12C16.9999 10.6739 16.4731 9.40215 15.5354 8.46447C14.5978 7.52678 13.326 7 11.9999 7C10.6738 7 9.40206 7.52678 8.46437 8.46447C7.52669 9.40215 6.99991 10.6739 6.99991 12C6.99991 13.3261 7.52669 14.5979 8.46437 15.5355C9.40206 16.4732 10.6738 17 11.9999 17ZM11.9999 15C11.2043 15 10.4412 14.6839 9.87859 14.1213C9.31598 13.5587 8.99991 12.7956 8.99991 12C8.99991 11.2044 9.31598 10.4413 9.87859 9.87868C10.4412 9.31607 11.2043 9 11.9999 9C12.7956 9 13.5586 9.31607 14.1212 9.87868C14.6838 10.4413 14.9999 11.2044 14.9999 12C14.9999 12.7956 14.6838 13.5587 14.1212 14.1213C13.5586 14.6839 12.7956 15 11.9999 15Z" fill="#2D3748"/>
</svg>
